X:1
T:Etude op. 21 no 3
T:Etude op. 21 no 3
T:Joachim Andersen
C:Joachim Andersen
L:1/8
Q:1/4=116
M:3/4
K:G
V:1 treble nm="Flûte" snm="Fl."
V:1
"^Allegretto"!mf! (3.g(^ab) (3.f(ab) (3.e(ab) | (3(d^c).e (3.d.B.G (3.D.G.B | %2
!<(! (3.d.e.f (3.g.a.^a (3.b!<)!.c'.d' |!f! (3(^d'e').=d' (3.c'.b.=a{/b} (3.a.^g.a | %4
 (3.c'.b.a (3.=g.f.e (3.d(^ga) |!p! (3.B.c.^c (3.d.e.f (3.=g(^AB) | %6
!f! (3(=Ad').b (3.a.f.d (3.A.B.^c |1 (3.d!>(!(^ga) (3.^d(ga) (3.e.^e.f!>)! :|2 %8
 (3.d(e'd') (3.e(e'd') (3.^e(=e'd') ||!f! (3.f(e'd' (3c').b.a (3.^g.a.b | %10
 (3.a(^cd (3e).d.=c (3.A.B.c | (3.d(^AB) (3.g(^cd) (3.b.^a.=a | (3.g(^ab) (3.f(ab) (3.=f(ab) | %13
 (3.e(=f'e' (3d').c'.b (3.^a.b.c' | (3.b(^de (3=f).e.=d (3.B.c.d | (3.e(Bc) (3.a(^de) (3.c'.b._b | %16
 (3.a(=bc') (3.^g(bc') (3.=g(bc') | (3.f(^b^c' (3e').c'.^a (3.g.f.e | %18
 (3.^d(=c'b (3=a).f.d (3.c.B.A | (3.^G(^ab (3d').b.^g (3.=f.e.d | (3.^c(b=a (3=g).e.c (3.A.^G.=G | %21
 (3.F(^ga (3c').a.d (3._e.a.c' | (3.d(bc' (3=e').c'.a (3.=g(c'e') | %23
 (3.f(^c'd') (3.e(^bc') (3.^d(=b=c') |!>(! (3.=d(^ab) (3.^c(^g=a) (3.=c!>)!(^ef) || %25
!mf! (3.=g(^ab) (3.f(ab) (3.e(ab) | (3(d^c).e (3.d.B.G (3.D.G.B | %27
!<(! (3.d.e.f (3.g.a.^a (3.b!<)!.c'.d' |!f! (3(^d'e').=d' (3.c'.b.=a{/b} (3.a.^g.a | %29
 (3.c'.b.a (3.=g.f.e (3.d(^ga) |!p! (3.B.c.^c (3.d.e.f (3.g(^AB) | %31
!f! (3(=Ad').b (3.a.f.d (3.A.B.^c | (3.d!>(!(^ga) (3.^d(ga) (3.e.^e!>)!.f | %33
!mf! (3.g(^ab) (3.f(ab) (3.e(ab) | (3(d^c).e (3.d.B.G (3.D.G.B | %35
!<(! (3.d.e.f (3.g.a.^a (3.b.d'!<)!.g' |!f! (3(g'f').=f' (3.e'.d'.c' (3.c'.b.c' | %37
 (3.f'(bc') (3.e'(^ga (3=g).e.A |!p! (3.d'(^b^c') (3.c'(^a=b (3=a).g.^c | %39
!mf! (3.d(^ab)!>(! (3.^c(^^ga) (3.=c(^g=a) | (3.B(f=g) (3.A(e=f) (3.G(^cd)!>)! | %41
!p! (3.G(^de) (3.G(^ef (3=d).c.D |!<(! (3.e(^AB) (3.f(Bc (3d).a.c'!<)! | %43
!>(! (3.e'(^c'd') (3.d'(^ab) (3.g(ab)!>)! | (3.e(^ab) (3.d"_dim."(ab) (3.^c.d.e | %45
 (3.d.B.G!<(! (3.D.G.B (3.d.g.b!<)! | (3.d'(^cd)!>(! (3.^d(^c'd') (3.e.^e.f!>)! | %47
!p! (3.g(^ab) (3.f(ab) (3.=e(ab) | (3.d(^ab) (3.F"_dim."(ab) (3.E(ab) | %49
!pp! (3.D(^ab) (3.G(fg) (3.B(^cd) |!<(! (3.D(^AB) (3.G(^cd)!<)! (3.B(fg) | %51
!mf! G2-!<(! (3G.B.d (3.g.b.d'!<)! |!f! .g'2 z2 z2 |] %53

